X:88
T:Peggy's Nettles
D:Danu:Think Before You Think
R:jig
Z:robin.beech@mcgill.ca
M:6/8
L:1/8
K:A
f | ecB A2B | cef ecA | B3 f2e | f2e fda | ecB A2B | cef ecA |
B3f2f | ecB A2 :: f | ecA cBA | cec cBA | GAB E2F | GAB agf | e2A cBA |
cec cBA | B3 f2f | ecB A2 :: f | a2g gfe | fgf fec | B3f2e |
f2e f2g | a2g gfe | fgf fec | B3 f2f | ecB A2  :|
